svg/UnitedNationsOCHA-Humanitarian/food_NFI_soap_icon_box.svg

<svg xmlns="http://www.w3.org/2000/svg" viewBox="0 0 32 32" enable-background="new 0 0 32 32"><path fill="#407cca" d="m25.6 0h-19.2c-3.52 0-6.4 2.88-6.4 6.4v19.2c0 3.52 2.88 6.4 6.4 6.4h19.2c3.521 0 6.4-2.88 6.4-6.4v-19.2c0-3.52-2.88-6.4-6.4-6.4m-4.274 5.483c1.555 0 2.814 1.259 2.814 2.817 0 1.553-1.26 2.813-2.814 2.813-1.556 0-2.816-1.259-2.816-2.813 0-1.558 1.261-2.817 2.816-2.817m-6.373-1.483c1.146 0 2.075.931 2.075 2.077 0 .814-.476 1.512-1.16 1.852-.381-.501-.978-.83-1.658-.83-.328 0-.634.083-.911.217-.261-.345-.42-.771-.42-1.239.0001-1.146.929-2.077 2.074-2.077m-.742 3.556c.901 0 1.633.731 1.633 1.63 0 .9-.731 1.631-1.633 1.631-.898 0-1.63-.731-1.63-1.631 0-.898.732-1.63 1.63-1.63m-2.572 1.428c.172 0 .337.022.499.058-.003.049-.014.094-.014.144 0 1.056.788 1.92 1.805 2.061 0 .009.003.019.003.028 0 1.267-1.025 2.292-2.292 2.292-1.266 0-2.291-1.025-2.291-2.292 0-1.266 1.025-2.291 2.29-2.291m13.564 14.943c0 2.24-1.833 4.073-4.073 4.073h-10.258c-2.241 0-4.075-1.833-4.075-4.073v-.719c.83 1.396 2.336 2.344 4.075 2.344h10.258c1.737 0 3.243-.947 4.073-2.344v.719m0-3.128c0 2.24-1.833 4.074-4.073 4.074h-10.258c-2.241 0-4.075-1.834-4.075-4.074v-1.575c0-2.241 1.834-4.074 4.075-4.074h10.258c2.24 0 4.073 1.833 4.073 4.074v1.575"/></svg>

<?xml version="1.0" encoding="utf-8"?>
<!-- Generator: Adobe Illustrator 16.0.3, SVG Export Plug-In . SVG Version: 6.00 Build 0)  -->
<!DOCTYPE svg PUBLIC "-//W3C//DTD SVG 1.1//EN" "http://www.w3.org/Graphics/SVG/1.1/DTD/svg11.dtd">
<svg version="1.1" id="Layer_1" xmlns="http://www.w3.org/2000/svg" xmlns:xlink="http://www.w3.org/1999/xlink" x="0px" y="0px"
	 width="32px" height="32px" viewBox="0 0 32 32" enable-background="new 0 0 32 32" xml:space="preserve">
<path fill="#407CCA" d="M25.6,0H6.4C2.88,0,0,2.88,0,6.4v19.2C0,29.12,2.88,32,6.4,32h19.2c3.521,0,6.4-2.88,6.4-6.4V6.4
	C32,2.88,29.12,0,25.6,0z M21.326,5.483c1.555,0,2.814,1.259,2.814,2.817c0,1.553-1.26,2.813-2.814,2.813
	c-1.556,0-2.816-1.259-2.816-2.813C18.51,6.742,19.771,5.483,21.326,5.483z M14.953,4c1.146,0,2.075,0.931,2.075,2.077
	c0,0.814-0.476,1.512-1.16,1.852c-0.381-0.501-0.978-0.83-1.658-0.83c-0.328,0-0.634,0.083-0.911,0.217
	c-0.261-0.345-0.42-0.771-0.42-1.239C12.88,4.931,13.808,4,14.953,4z M14.211,7.556c0.901,0,1.633,0.731,1.633,1.63
	c0,0.9-0.731,1.631-1.633,1.631c-0.898,0-1.63-0.731-1.63-1.631C12.581,8.288,13.313,7.556,14.211,7.556z M11.639,8.984
	c0.172,0,0.337,0.022,0.499,0.058c-0.003,0.049-0.014,0.094-0.014,0.144c0,1.056,0.788,1.92,1.805,2.061
	c0,0.009,0.003,0.019,0.003,0.028c0,1.267-1.025,2.292-2.292,2.292c-1.266,0-2.291-1.025-2.291-2.292
	C9.349,10.009,10.374,8.984,11.639,8.984z M25.203,23.927c0,2.24-1.833,4.073-4.073,4.073H10.872c-2.241,0-4.075-1.833-4.075-4.073
	v-0.719c0.83,1.396,2.336,2.344,4.075,2.344H21.13c1.737,0,3.243-0.947,4.073-2.344V23.927z M25.203,20.799
	c0,2.24-1.833,4.074-4.073,4.074H10.872c-2.241,0-4.075-1.834-4.075-4.074v-1.575c0-2.241,1.834-4.074,4.075-4.074H21.13
	c2.24,0,4.073,1.833,4.073,4.074V20.799z"/>
</svg>
